X:1
T:No Name Polka
S:Pat Enright
B:M Mulvihill, First Collection of
B:Traditional Irish Music, page 113,
S:Nigel Gatherer <gatherer@argonet.co.uk> scots-l 2002-12-28
R:polka
M:2/4
L:1/8
K:G
D2 D2 | EG G2 | A>B AG | EG AB |\
D2 D2 | EG G>B | dB AB/2A/2 | G2 G2 :|]
d2 Bd | e2 ge | dB AG | (3EFG AB |\
[1 d2 Bd | e2 ge | dB A2 | B/2A/2G2 G :|]
[2 D2 D2 | EG G>B | dB AB/2A/2 | G2 G2 |]
